**kern
*clefF4
*k[f#c#g#d#]
*M4/4
=1-
4D#
(8.E#
8.D#)
8D#
16C#
16D#
8C#
=2
2D#
2C#
=3
8BB 8GG#
8Cn
(2D#
8D#)
8r
=4
16E
4F#
4E 4C-
8D#
4D- 4BB 4GG#
16E
=5
4F#
16E
4D#
4C#
(8C#
16C#
=6
1BB
=7
4C#)
16r
2C#
8r
16BB
=8
1BB 1GG#
=9
4.BB
16C#
4BB
8C#
16Dn
16Dn
16C#
=10
8C#
4D#
2E
8F#
=11
*-